X:1
T:Holy Holy Holy
T:Holy Holy Holy
T:william
C:william
%%score { 1 | 2 }
L:1/8
M:4/4
K:D
V:1 treble nm="Piano" snm="Pno."
V:2 bass 
V:1
 z2 D2 D2 F2 F2 | A4 A z/ z/ A2 | AB B2 B2 B2 | [FA]4 F4 | A2 A z A z A2 | d4 c2 [EA]2 | E2 A2 B4 | %7
 A z A6 | D2 D2 F2 F2 | A4 A z/ z/ A2 | AB B2 B2 B- | B[FA] [FA]2 F4 | d4 A2 A2 | B4 F4 | %14
 G3 z E3 E- | E/ z/ z D2 D4 |] %16
V:2
 z2 [D,F,A,]4 [D,F,A,]4 | z2 [D,F,A,]6 | [G,,B,,D,]8 | [D,F,A,]4 [D,F,A,]4 | %4
 [D,F,A,D]2 [D,F,A,D] z [D,F,A,D]4 | [D,F,A,]4 [A,,C,E,]4 | [A,,C,E,]4 [G,,B,,D,]4 | %7
 [D,F,A,] z [D,F,A,]6 | [D,F,A,]4 [D,F,A,]4 | z2 [D,F,A,]6 | [G,,B,,D,]4 z2 z | %11
 z2 [D,F,A,]2 [D,F,A,]4 | [D,F,A,]4 [D,F,A,]4 | [G,,B,,D,]8 | [G,,B,,D,]3 z [A,,C,E,]4 | %15
 z2 [D,F,A,]2 [D,F,A,]4 |] %16

